symbols/web/earbuds_battery/materialsymbolsoutlined/earbuds_battery_wght100grad200fill1_40px.svg

<svg xmlns="http://www.w3.org/2000/svg" height="40" width="40"><path d="M31.167 12.042V10.75h1.666v1.292h2q.584 0 .959.354t.375.896v14.833q0 .542-.375.917t-.959.375h-5.666q-.584 0-.917-.375-.333-.375-.333-.917V13.292q0-.542.333-.896t.917-.354ZM9.083 29.417q-2.208 0-3.729-1.5t-1.521-3.709V13.625q0-1.208.855-2.042.854-.833 2.02-.833 1.167 0 2.021.833.854.834.854 2.042 0 1.167-.854 2t-2.021.833q-.375 0-.75-.083t-.625-.333v8.166q0 1.584 1.063 2.646 1.062 1.063 2.646 1.063 1.583 0 2.666-1.063 1.084-1.062 1.084-2.646v-8.291q0-2.167 1.479-3.667T18 10.75q2.208 0 3.729 1.458 1.521 1.459 1.521 3.709v10.625q0 1.208-.854 2.041-.854.834-2.021.834-1.208 0-2.042-.834-.833-.833-.833-2.041 0-1.167.833-2 .834-.834 2.042-.834.333 0 .708.084.375.083.667.291v-8.166q0-1.584-1.083-2.625Q19.583 12.25 18 12.25q-1.583 0-2.646 1.042-1.062 1.041-1.062 2.625v8.291q0 2.209-1.5 3.709t-3.709 1.5Z"/></svg>

<svg xmlns="http://www.w3.org/2000/svg" height="40" width="40"><path d="M31.167 12.042V10.75H32.833V12.042H34.833Q35.417 12.042 35.792 12.396Q36.167 12.75 36.167 13.292V28.125Q36.167 28.667 35.792 29.042Q35.417 29.417 34.833 29.417H29.167Q28.583 29.417 28.25 29.042Q27.917 28.667 27.917 28.125V13.292Q27.917 12.75 28.25 12.396Q28.583 12.042 29.167 12.042ZM9.083 29.417Q6.875 29.417 5.354 27.917Q3.833 26.417 3.833 24.208V13.625Q3.833 12.417 4.688 11.583Q5.542 10.75 6.708 10.75Q7.875 10.75 8.729 11.583Q9.583 12.417 9.583 13.625Q9.583 14.792 8.729 15.625Q7.875 16.458 6.708 16.458Q6.333 16.458 5.958 16.375Q5.583 16.292 5.333 16.042V24.208Q5.333 25.792 6.396 26.854Q7.458 27.917 9.042 27.917Q10.625 27.917 11.708 26.854Q12.792 25.792 12.792 24.208V15.917Q12.792 13.75 14.271 12.25Q15.75 10.75 18 10.75Q20.208 10.75 21.729 12.208Q23.25 13.667 23.25 15.917V26.542Q23.25 27.75 22.396 28.583Q21.542 29.417 20.375 29.417Q19.167 29.417 18.333 28.583Q17.5 27.75 17.5 26.542Q17.5 25.375 18.333 24.542Q19.167 23.708 20.375 23.708Q20.708 23.708 21.083 23.792Q21.458 23.875 21.75 24.083V15.917Q21.75 14.333 20.667 13.292Q19.583 12.25 18 12.25Q16.417 12.25 15.354 13.292Q14.292 14.333 14.292 15.917V24.208Q14.292 26.417 12.792 27.917Q11.292 29.417 9.083 29.417Z"/></svg>
